X: 9082
T: Da New Rigged Ship
R: reel
M: 4/4
K: Adorian
eg|:a2ab ageg|agab agef|g2ge fgag|1 f2d2d2eg:|2 f2d2d2ed||
|:^cecA B2 ed|^cecA E2 ed|^cecA B2 ed|1 ^c2A2A2ed:|2 ^c2A2A2AB||
|:cdec BcdB|ABAF GF ED|cdec BcdB|1 c2A2A2AB:|2 c2A2A4||

